X: 121
T: Not half Seas Over
%R: march, reel
B: Thompson's Twenty four Country Dances (for the Year 1804) p.12 #1
S: http://folkopedia.efdss.org/images/2/28/Thompson24_1804.PDF  2014-8-2
Z: 2014 John Chambers <jc:trillian.mit.edu>
M: 2/4
L: 1/16
K: F
|:\
c'2c'2 c'd'c'b | a2a2 abag | f2c2g2c2 | abab g2z2 |\
c'2c'2 c'd'c'b | a2a2 abag | f2c2g2c2 | abag f2z2 :|
|:\
c2c2 a2c2 | d2d2B2d2 | b2b2g2e2 |fagf edcB |\
c2c2 a2c2 | d2d2B2d2 | b2b2 efge | f4 f2z2 :|
% - - - - - - - - - - - - - - - - - - - - - - - - -
%%begintext align
%% Change sides and back again lead down the
%% middle up again hands four round at top.
%%endtext
% - - - - - - - - - - - - - - - - - - - - - - - - -
